X:1
T:Fammi pur guerr' amor
T:Francesco Corteccia
T:Fammi pur guerr' amor
C:Francesco Corteccia
%%score [ 1 2 3 4 ]
L:1/8
M:2/2
K:F
V:1 treble nm="SOPRANO" snm="S."
V:2 treble nm="ALTO" snm="A."
V:3 treble-8 transpose=-12 nm="TENOR" snm="T."
V:4 bass nm="BASS" snm="B."
V:1
 z8 | z8 | z4 F4 | A2 A2 B2 B2 | A6 A2 | G2 G2 F4 | E4 z2 G2 | A2 F2 G3 A | B6 A2 | A2 E2 F4 | %10
w: ||Fam-|mi pur guerr'- a-|mor quan-|to tu vo-|i Che|gl'oc- chi di co-|stei pa-|ce mi dan-|
 E4 z2 E2 | F2 G2 A2 A2 | G4 G4 | z2 G2 A2 A2 | B3 A G2 A2- | AG F2 G2 A2 | G2 F3 E/D/ E2 | F8 | %18
w: no Co-|me ve- der tu|puo- i|Che sti- mo|po- co de tuo-|* * i lac- ci|il dan- * * *|no|
 z4 F4 | F2 F2 F4 | E2 E2 F2 G2 | A2 A2 B4 | A4 z2 A2 | G2 G2 G2 F2 | E2 E2 z2 A2 | A2 A2 B4 | %26
w: Oc-|chi be- ni-|gni il cui va-|lor ec- ce-|de O-|gn'al- tro vi- vo|rag- gio Vi-|ve- te lie-|
 A4 G4 | F2 E4 DC | D4 C4 | z2 A2 G2 G2 | G2 F2 E2 E2 | z2 E2 F2 F2 | G2 G2 A4 | A4 z2 A2 | %34
w: ti se|di me cu- *|ra- te|Lu- mi san-|ti'e di- vi- ni|La cui al-|ta bel- ta-|de Mi|
 F2 G2 A2 B2 | c3 B A2 G2- | GF F4 E2 | F8 | E4 z4 | G8 | G4 G4 | A4 F4 | E4 E4 | z2 G2 A2 A2 | %44
w: mos- tra su dal|ciel qual sia'l vi-||a-|ggio.|Voi|hav- e-|te mer-|ce- de|Co- si di|
 A4 F4 | B6 A2 | G2 F2 G4 | G4 z2 G2 | A2 A2 B3 A | G2 A3 G F2 | G2 A2 F4 | z2 G2 A2 A2 | %52
w: me nel|mio in-|ten- so'ar- do-|re Che|po- co cu- ro|le fiam- * me|d'A- mo- re|Che po- co|
 B3 A G2 A2- | AG F2 G2 A2 | G2 F3 E/D/ E2 | F8- | F8- | F8- | F8- | F8 |] %60
w: cu- ro le fiam-|* * * * me|d'A- mo- * * *|re.|_||||
V:2
 F,4 A,3 B, | C2 C2 D4 | C4 C2 C2 | F8 | F4 z2 F2 | E2 E2 D4 | C2 G,A, B,CDE | F2 C2 z2 C2 | %8
w: Fam- mi pur|guerr' a- mor|quan- to tu|vo-|i quan-|to tu vo-|i tu _ _ _ _ _|vo- i Che|
 D2 B,2 C2 C2 | C2 G,2 A,2 F,2 | A,2 G,2 z2 G,2 | D2 E2 F2 F2 | D4 E4 | z2 E2 F3 E | D2 DD E2 E2 | %15
w: gl'oc- chi di cos-|tei pa- ce mi|dan- no Co-|me ve- der tu|puo- i|Che sti- mo|po- co, che sti- mo|
 D2 A,2 B,2 C2 | D2 B,2 C4 | A,8 | C4 D2 D2 | D8 | C2 C2 D2 E2 | F2 F2 D3 E | F4 z2 F2 | %23
w: po- co de tuoi|lac- c'il dan-|no|Oc- chi be-|ni-|gni il cui va-|lor ec- ce- *|de O-|
 D2 D2 E2 D2 | G,2 G,2 z2 F2 | F2 F2 F4 | F4 E2 D2 | C2 C2 B,2 C2- | CB,/A,/ B,2 C4 | z2 F2 D2 D2 | %30
w: gn'al- tro vi- vo|rag- gio Vi-|ve- te lie-|ti se di|me cu- ra- *|* * * * te|Lu- mi san-|
 E2 D2 G,2 G,2 | z2 A,2 A,2 B,2 | D2 E2 F4 | F4 z2 C2 | D2 E2 F2 D2 | C2 E2 F2 E2 | C2 D2 G,2 G,2 | %37
w: ti'e di- vi- ni|La cui al-|ta bel- ta-|de Mi|mos- tra su dal|Ciel, mi mos- tra|su dal ciel qual|
 A,2 C3 B,/A,/ B,2 | C4 z4 | E8 | D4 E4 | F4 D4 | C4 C4 | z2 E2 F2 F2 | F3 E D3 C | B,2 C2 D2 F2 | %46
w: sia'l via- * * *|ggio.|Voi|hav- e-|te mer-|ce- de|Co- si di|me nel mi- *|o in- ten- so|
 E2 DC D4 | E4 z2 E2 | F3 E D2 DD | E2 E2 D2 A,2 | B,2 C2 DD B,2 | C2 E2 F3 E | D2 DD E2 E2 | %53
w: ar- do- * *|re Che|po- co cu- ro, Che|po- co cu- ro|le fiam- me d'a- mo-|re Che po- co|cu- ro, Che po- co|
 D2 A,2 B,2 C2 | D2 B,2 C2 C2 | z2 A,4 D2- | D2 C4 B,2 | A,2 B,2 D4- | D2 C2 C4- | C8 |] %60
w: cu- ro le fiam-|me d'a- mo- re|le fiam-|* me d'a-|mo- * *|* * re.|_|
V:3
 z8 | z8 | F4 A3 B | c2 c2 d4- | d2 d2 c4- | c2 c2 A2 B2 | G2 c2 d2 B2 | c2 A2 c2 e2 | %8
w: ||Fam- mi _|_ pur guerr'|_ a- mor|_ quan- to tu|voi Che gl'oc- chi|di co- stei, Che|
 f2 d2 f2 f2 | f2 c2 d c2 B | c2 c2 d2 c2 | A2 c4 BA | =B c2 B c4- | c4 z2 F2 | G2 F2 c3 B | %15
w: gl'oc- chi di cos-|tei pa- ce mi dan-|no Co- me ve-|der tu _ _|puo- * * i|_ Che|sti- mo po- co|
 A2 d2 d2 c2 | BAGF G4 | F8 | A4 A2 A2 | B8 | G2 A2 A2 c2 | c2 d2 B4 | c2 c2 d3 c | B2 B2 c2 A2 | %24
w: de tuoi lac- c'il|dan- * * * *|no|Oc- chi be-|ni-|gni il cui va-|lor ec- ce-|de O- gn'al- tro|vi- vo rag- gio|
 z2 c2 c2 c2 | d8 | c2 c4 B2 | A4 G2 A2 | G4 C4 | z2 c2 B2 B2 | c2 A2 c2 c2 | z2 c2 d2 d2 | %32
w: Vi- ve- te|lie-|ti se di|me cu- ra-|* te|Lu- mi san-|ti'e di- vi- ni|La cui al-|
 B2 c2 c2 c2 | z2 F2 G2 A2 | B2 G2 F2 G2 | A2 G2 F2 G2 | A2 B2 c4- | c2 c2 F4 | G4 z4 | c8 | %40
w: ta bel- ta- de|Mi mos- tra|su dal ciel, mi|mos- tra su dal|ciel qual sia|_ il via-|ggio.|Voi|
 =B4 c4 | c4 _B4 | G2 G2 z2 G2 | c2 c2 c4- | c4 z2 d2 | d2 c2 B2 d2- | dc c4 =B2 | c8 | %48
w: hav- e-|te mer-|ce- de Co-|sì di me|_ nel|mio in- ten- so|_ ar- do- *|re|
 z2 F2 G2 F2 | c3 B A2 d2 | d2 c2 BAGF | G4 F2 F2 | G2 F2 c3 B | A2 d2 d2 c2 | BAGF G4 | %55
w: Che po- co|cu- ro le fiam-|me d'A- mo- * * *|* re Che|po- co cu- ro|le fiam- me d'a-|mo- * * * *|
 F4 z2 B2- | B2 c2 d4- | d2 d2 B4 | A8- | A8 |] %60
w: re, fiam-|* me d'a-|* mo- *|re.|_|
V:4
 z4 F,4 | A,2 A,2 B,2 B,2 | A,3 G, F,4- | F,2 F,2 B,,3 C, | D,3 E, F,4 | z2 C,2 D,2 B,,2 | %6
w: Fam-|mi pur guerr' a-|mor _ _|_ quan- to tu|vo- * i|Che gl'oc- chi|
 C,2 C,2 G,2 G,2 | F,2 F,2 C,2 C,2 | B,,2 B,,2 F,4- | F,2 E,2 D,4 | C,4 z2 C,2 | D,2 C,2 F,2 F,2 | %12
w: di co- stei, Che|gl'oc- chi di co-|stei pa- ce|_ mi dan-|no Co-|me ve- der tu|
 G,4 C,4- | C,4 z4 | z2 B,,2 C,2 C,2 | D,3 C, B,,2 A,,2 | B,,2 D,2 C,4 | F,,8 | F,4 D,2 D,2 | %19
w: puo- i|_|Che sti- mo|po- co de tuoi|lac- c'il dan-|no|Oc- chi be-|
 B,,8 | C,2 A,,2 D,2 C,2 | F,2 F,2 G,4 | F,4 z2 F,2 | G,2 G,2 C,2 D,2 | C,2 C,2 z2 F,2 | %25
w: ni-|gni il cui va-|lor ec- ce-|de O-|gn'al- tro vi- vo|rag- gio Vi-|
 D,2 D,2 B,,4 | F,4 z4 | z8 | z8 | F,4 G,2 G,2 | C,2 D,2 C,2 C,2 | z2 A,,2 D,2 B,,2 | %32
w: ve- te lie-|ti|||Lu- mi san-|ti'e di- vi- ni|La cui al-|
 G,,2 C,2 F,4 | F,4 z4 | z8 | z2 C,2 D,2 E,2 | F,2 D,2 C,2 C,2 | F,3 E, D,4 | C,4 z4 | C,8 | %40
w: ta bel- ta-|de||Mi mo- stra|su dal ciel qual|sia- il via-|ggio.|Voi|
 G,4 C,4 | F,4 B,,4 | C,2 C,2 z2 C,2 | C,2 C,2 F,4- | F,2 F,2 B,4- | B,2 A,2 G,2 F,2 | %46
w: hav- e-|te mer-|ce- de Co-|si di me|_ nel mio|_ in- ten- so|
 G,2 A,2 G,4 | C,8 | z4 z2 B,,2 | C,2 C,2 D,3 C, | B,,2 A,,2 B,,2 D,2 | C,4 F,,4 | %52
w: ar- do- *|re|Che|po- co cu- ro|le fiam- me d'a-|mo- re|
 z2 B,,2 C,2 C,2 | D,3 C, B,,2 A,,2 | B,,2 D,2 C,2 C,2 | z2 D,4 B,,2- | B,,2 A,,2 B,,3 C, | %57
w: Che po- co|cu- ro le fiam-|me d'a- mo- re|le fiam-|* me d'a- *|
 D,2 B,,4 A,,G,, | F,,8- | F,,8 |] %60
w: * mo- * *|re.|_|

